X:1
T:Title
%%score ( 1 2 ) 3
L:1/8
Q:1/4=90
M:4/4
K:Eb
V:1 treble nm="Strings 1, Soprano"
V:2 treble 
V:3 bass nm="Strings 1, Bass"
V:1
 z4 z2 [B,E]>[B,F] | [EG]>[E_G] [E=G]>[FA] [GB]2 E>[EF] | [EG]>[FA] [EG]>[B,F] [B,E]2 [EG]>[FA] | %3
w: 1.~My~ Be|lov ed~ is~ so~ fair;~ How~ His~|breath~ per fumes~ the~ air!~ Oh,~ the~|
 [GB]>[GB] [GB]>[GB] [Ac]>[ce] [Bd]>[Ac] | [GB]6 [B,E]>[B,F] | [EG]>[E_G] [E=G]>[FA] [GB]2 E>[EF] | %6
w: heav en~ of~ His~ smiles~ my~ soul~ doth~|see!~ Oh,~ the~|won ders~ of~ His~ grace,~ To~ un|
 [EG]>[FA] [EG]>[B,F] [B,E]2 [EG]>[FA] | [GB]>[GB] [GB]>[EG] E>E [B,F]>[B,F] | [B,E]6 z2 | %9
w: veil~ the~ ho ly~ place,~ To~ in|vite~ me~ to~ the~ ban quet~ of~ the~|free!~|
 [GB]3 [Ac] [GB]>[FA] [EG]>[FA] | B6 z2 | [Ac]3 [EA] [Ac]>[ce] [Bd]>[Ac] | B6 z2 | %13
w: ||||
 [Ge]3 [Ge] [Ge] [GB]3 | [Ac]3 [EA] [Ac][GB][Q:1/4=90]E[EF][Q:1/4=12] | [EG]3 [FA] [EG]2 [DF]2 | %16
w: |||
 E6 z2 |] %17
w: |
V:2
 x8 | x8 | x8 | x8 | x8 | x8 | x8 | x8 | x8 | x8 | G2 F>F G2 z2 | x8 | G2 F>F G2 z2 | x8 | x8 | %15
 x8 | x8 |] %17
V:3
 z4 z2 [E,G,]>[E,A,] | [E,B,]>[E,=A,] [E,B,]>[E,B,] [E,E]2 [E,G,]>[E,_A,] | %2
 [E,B,]>[E,B,] [B,,B,]>[B,,A,] [E,G,]2 [E,B,]>[E,B,] | %3
 [E,E]>[E,E] [E,E]>[E,E] [A,E]>[A,E] [A,E][A,E] | [E,E]6 [E,G,]>[E,A,] | %5
 [E,B,]>[E,=A,] [E,B,]>[E,B,] [E,E]2 [E,G,]>[E,_A,] | %6
 [E,B,]>[E,B,] [B,,B,]>[B,,A,] [E,G,]2 [E,B,]>[E,B,] | %7
 [E,E]>[E,E] [E,E]>[E,B,] [B,,G,]>[B,,G,] [B,,A,]>[B,,A,] | [E,G,]6 z2 | %9
 [E,E]3 [E,E] [E,E]>[E,B,] [E,B,]>[E,B,] | [E,E]2 [B,,D]>[B,,D] [E,E]2 z2 | %11
 [A,E]3 [A,C] [A,E]>[A,E] [A,E]>[A,E] | [E,E]2 [B,,D]>[B,,D] [E,E]2 z2 | %13
 [E,B,]3 [E,B,] [E,B,] [E,E]3 | [A,E]3 [A,C] [E,E][E,E][G,B,][A,C] | %15
 B,3 [B,,B,] [B,,B,]2 [B,,A,]2 | [E,G,]6 z2 |] %17

